icons/kaggle-light.svg

<svg width="256" height="256" viewBox="0 0 256 256" fill="none" xmlns="http://www.w3.org/2000/svg">
<path d="M196 0H60C26.8629 0 0 26.8629 0 60V196C0 229.137 26.8629 256 60 256H196C229.137 256 256 229.137 256 196V60C256 26.8629 229.137 0 196 0Z" fill="#F4F2ED"/>
<path d="M155.836 220.999H179.92L129.019 151.658L179.491 102.822C179.766 102.479 179.938 102.066 179.986 101.629C180.034 101.192 179.957 100.751 179.764 100.356C179.604 99.9248 179.308 99.5574 178.92 99.3102C178.533 99.0629 178.075 98.9494 177.617 98.9868H152.674C151.929 99.0306 151.2 99.2227 150.53 99.5519C149.86 99.8811 149.261 100.341 148.77 100.904L101.109 149.232V38.724C101.161 38.3572 101.127 37.9833 101.01 37.6319C100.893 37.2804 100.696 36.9611 100.435 36.6991C100.174 36.4372 99.8551 36.2398 99.5045 36.1226C99.1539 36.0054 98.7809 35.9716 98.4151 36.0239H79.7173C79.3514 35.9716 78.9784 36.0054 78.6279 36.1226C78.2773 36.2398 77.9587 36.4372 77.6974 36.6991C77.4361 36.9611 77.2392 37.2804 77.1223 37.6319C77.0054 37.9833 76.9717 38.3572 77.0238 38.724V218.182C76.9717 218.549 77.0054 218.923 77.1223 219.274C77.2392 219.625 77.4361 219.945 77.6974 220.207C77.9587 220.469 78.2773 220.666 78.6279 220.783C78.9784 220.9 79.3514 220.934 79.7173 220.882H98.4151C98.7809 220.934 99.1539 220.9 99.5045 220.783C99.8551 220.666 100.174 220.469 100.435 220.207C100.696 219.945 100.893 219.625 101.01 219.274C101.127 218.923 101.161 218.549 101.109 218.182V178.815L112.155 168.211L151.932 219.121C152.393 219.716 152.985 220.196 153.663 220.522C154.34 220.848 155.084 221.012 155.836 220.999Z" fill="#20BEFF"/>
</svg>

<svg xmlns="http://www.w3.org/2000/svg" width="256" height="256" fill="none"><path fill="#F4F2ED" d="M196 0H60C26.863 0 0 26.863 0 60v136c0 33.137 26.863 60 60 60h136c33.137 0 60-26.863 60-60V60c0-33.137-26.863-60-60-60"/><path fill="#20BEFF" d="M155.836 220.999h24.084l-50.901-69.341 50.472-48.836a2.31 2.31 0 0 0 .273-2.466 2.11 2.11 0 0 0-2.147-1.37h-24.943a5.6 5.6 0 0 0-3.904 1.918l-47.661 48.328V38.724a2.394 2.394 0 0 0-1.605-2.601 2.4 2.4 0 0 0-1.089-.1H79.717a2.38 2.38 0 0 0-2.02.676 2.39 2.39 0 0 0-.673 2.025v179.458a2.4 2.4 0 0 0 .673 2.025 2.38 2.38 0 0 0 2.02.675h18.698a2.382 2.382 0 0 0 2.694-2.7v-39.367l11.046-10.604 39.777 50.91a4.85 4.85 0 0 0 3.904 1.878"/></svg>
